X:1
T:Title
%%score { ( 1 3 ) | ( 2 4 ) }
L:1/8
M:3/4
K:Eb
V:1 treble nm="Grand Piano"
V:3 treble 
V:2 bass 
V:4 bass 
V:1
 z2 z2[Q:1/4=100] [CE]>[CD] | [CE]4 c>=B | c4 (3EAc | [Ae]4 [EAc]>[_DEB] | [CEA]4 [A,CE]>[A,CE] | %5
 [B,_DG]2 [A,DF]2 [A,DG]2 | [CEA]2 [A,EA]2 B2 | c2 B2 A2 | B4 B>B | B4 c>_d | e2 e2 c2 | A2 A2 B2 | %12
 [Ec]4 [CEA]>[CEA] | [_DFA]4 [A,EG]>[A,DF] | [A,CE]2 [A,EA]2 [F_d]2 |[M:7/8] c2 c3 B2 | %16
[M:2/4] [CA]4 |[M:1/4] [CE]>[CD] |[M:3/4] z2 A,2 [Ec]>[D=B] | [Ec]4 (3[CE][EA][EAc] | [Ae]4 [GB]2 | %21
 [Ac]4 [CE]>[CD] | z2 A,2 [Ec]>[D=B] | [Ec]4 (3[CE][EA][EAc] | A2 z2 z2 |[M:2/4] [CEA]4 |] %26
V:2
 z2 z2 [A,,A,]>[A,,A,] | [A,,A,]4 [A,E]>[A,D] | [A,E]4 (3[A,-C][A,CE][A,EA] | [E,C]4 E,>E, | %4
 A,,4 A,,>A,, | E,2 E,2 E,2 | A,,2 C,2 [E,G,E]2 | [A,E]2 [G,B,E]2 [F,B,D]2 | %8
 [E,G,E]4 [E,G,E]>[E,G,E] | [E,G,E]4 [E,A,E]>[E,B,E] | [A,CE]2 [A,CE]2 [A,E]2 | %11
 [E,CE]2 [E,CE]2 [E,G,E]2 | [A,,A,]4 A,,>A,, | _D,4 D,>D, | A,,2 C,2 [_D,A,]2 | %15
[M:7/8] [E,A,E]2 [E,G,E]3 [E,G,_D]2 |[M:2/4] [A,,A,]4 |[M:1/4] [A,,A,]>[A,,A,] | %18
[M:3/4] [A,,A,]2 A,,2 A,>A, | A,2 A,2 (3A,-[A,C]A, | [E,C]4 [E,E]2 | [A,E]4 [A,,A,]>[A,,A,] | %22
 [A,,A,]2 A,,2 A,>A, | A,2 A,2 (3A,-[A,C]A, | C2 B,2 E,2 |[M:2/4] A,,4 |] %26
V:3
 x6 | x6 | x6 | x6 | x6 | x6 | x6 | x6 | x6 | x6 | x6 | x6 | x6 | x6 | x6 |[M:7/8] x7 |[M:2/4] x4 | %17
[M:1/4] x2 |[M:3/4] [CE]4 z2 | x6 | x6 | x6 | [CE]4 z2 | x6 | e2- [Ge]2 [_DEG]2 |[M:2/4] x4 |] %26
V:4
 x6 | x6 | x6 | x6 | x6 | x6 | x6 | x6 | x6 | x6 | x6 | x6 | x6 | x6 | x6 |[M:7/8] x7 |[M:2/4] x4 | %17
[M:1/4] x2 |[M:3/4] x6 | x6 | x6 | x6 | x6 | x6 | E,4 z2 |[M:2/4] x4 |] %26

